X: 1
T: the Mason's Apron v.1
P: piffero primo a0727
O: fifer's delight - mod
%R: reel
F: http://ancients.sudburymuster.org/mus/snt/pdf/masonsC0.pdf
Z: 2020 John Chambers <jc:trillian.mit.edu>
M: 2/4
L: 1/16
K: A
ed |\
cA (3AAA ABAF | EFAc dcBA | dB (3BBB BcBA | Bcde fefg |\
aA (3AAA ABAF |
EFAc dcBA | Bcde fefa | (3AAA cB A2 :: B2 |\
cAeA fAeA | cAeA fedc |
dBfB bBfB | defg afed |\
(3cBA eA fAeA | EFAc dcBA | Bcde fefa | (3AAA cB A2 :|
